app/dist/common/images/triumph-bancorp.svg

<svg height="18" viewBox="0 0 18 18" width="18" xmlns="http://www.w3.org/2000/svg"><path d="m0 0h18v18h-18z" fill="#9d2235"/><path d="m4.25 7.33h3.08v-3.16l1.34-1.17v5.67h-5.67zm0 3.34h3.08v3.16l1.34 1.17v-5.67h-5.67zm6.42-3.34h3.08l1.25 1.34h-5.67v-5.67l1.34 1.17zm3.08 3.34h-3.08v3.16l-1.34 1.17v-5.67h5.67z" fill="#fff"/></svg>

<!-- by TradingView --><svg xmlns="http://www.w3.org/2000/svg" width="18" height="18" viewBox="0 0 18 18"><path fill="#9D2235" d="M0 0h18v18H0z"/><path d="M4.25 7.33h3.08V4.17L8.67 3v5.67H3l1.25-1.34Zm0 3.34h3.08v3.16L8.67 15V9.33H3l1.25 1.34Zm6.42-3.34h3.08L15 8.67H9.33V3l1.34 1.17v3.16Zm3.08 3.34h-3.08v3.16L9.33 15V9.33H15l-1.25 1.34Z" fill="#fff"/></svg>
